proprietary/assets/icons/sport/kleedkamer-vrouw.svg

<svg viewBox="0 0 64 64" xmlns="http://www.w3.org/2000/svg"><path d="m0 0h64v64h-64z" fill="none"/><path d="m18 53.69a1.87 1.87 0 0 0 1.87 1.87h2.58v-21.24h-4.45z"/><path d="m49.92 23.44-14.92-6.72a7.72 7.72 0 0 0 -1.87-.55v-2.07a1.76 1.76 0 0 1 1.05-1.52 5.06 5.06 0 0 0 2.7-5.71 5 5 0 0 0 -3.74-3.74 5.06 5.06 0 0 0 -6.14 4.92 1.17 1.17 0 0 0 2.33 0 2.72 2.72 0 0 1 5.36-.66 2.75 2.75 0 0 1 -1.45 3.1 4 4 0 0 0 -2.35 3.61v2.07a7.72 7.72 0 0 0 -1.87.55l-14.94 6.72a5.18 5.18 0 0 0 2.13 9.89h7.25v25.81a1.86 1.86 0 0 0 1.86 1.86h18.79a1.87 1.87 0 0 0 1.89-1.86v-28.92a4.66 4.66 0 0 0 -4.66-4.66h-18.64a4.68 4.68 0 0 0 -4.65 4.16l4.94.65a.48.48 0 0 1 .46.63h-7.24a2.84 2.84 0 0 1 -1.21-5.44l14.89-6.71a5 5 0 0 1 4.14 0l14.97 6.71a2.84 2.84 0 0 1 -1.21 5.44h-.79v2.33h.82a5.18 5.18 0 0 0 2.13-9.89zm-15.41 6.49c1.33 0 2.15.84 2.15 2.41a2.1 2.1 0 0 1 -2.15 2.34 2 2 0 0 1 -2.15-2.34 2.12 2.12 0 0 1 2.15-2.41zm-5.4 13.56c.3-1.64.63-2.54.77-3.68.3-2.52 1.19-3.74 2.61-4.18a6.93 6.93 0 0 1 4.1 0c1.41.44 2.3 1.66 2.61 4.18.13 1.14.46 2 .76 3.68.25 1.34-.48 2.07-1.08 2.15a59.46 59.46 0 0 1 -1.61-7.23 3.48 3.48 0 0 0 -.21-.45 4.2 4.2 0 0 1 0 2.37 4.06 4.06 0 0 0 0 2 18.61 18.61 0 0 1 1.11 6.64 12.88 12.88 0 0 0 -1.31-.13v7.75a2 2 0 0 1 -1.95-1.85v-5.86h-.31-.34v5.77a2 2 0 0 1 -2 1.8v-7.34a5.51 5.51 0 0 1 -1.32-.11 18.75 18.75 0 0 1 1.11-6.66 4.06 4.06 0 0 0 0-2 4.11 4.11 0 0 1 -.05-2.34 4.75 4.75 0 0 0 -.22.45 59.46 59.46 0 0 1 -1.61 7.23c-.57-.12-1.3-.85-1.06-2.19z"/></svg>

<svg xmlns="http://www.w3.org/2000/svg" viewBox="0 0 64 64"><defs><style>.cls-1{fill:none;}</style></defs><g id="BOX"><rect class="cls-1" width="64" height="64"/></g><g id="ICOON"><path d="M18,53.69a1.87,1.87,0,0,0,1.87,1.87h2.58V34.32H18Z"/><path d="M49.92,23.44,35,16.72a7.72,7.72,0,0,0-1.87-.55V14.1a1.76,1.76,0,0,1,1.05-1.52,5.06,5.06,0,0,0,2.7-5.71,5,5,0,0,0-3.74-3.74A5.06,5.06,0,0,0,27,8.05a1.17,1.17,0,0,0,2.33,0,2.72,2.72,0,0,1,5.36-.66,2.75,2.75,0,0,1-1.45,3.1,4,4,0,0,0-2.35,3.61v2.07a7.72,7.72,0,0,0-1.87.55L14.08,23.44a5.18,5.18,0,0,0,2.13,9.89h7.25V59.14A1.86,1.86,0,0,0,25.32,61H44.11A1.87,1.87,0,0,0,46,59.14V30.22a4.66,4.66,0,0,0-4.66-4.66H22.7a4.68,4.68,0,0,0-4.65,4.16l4.94.65a.48.48,0,0,1,.46.63H16.21A2.84,2.84,0,0,1,15,25.56l14.89-6.71a5,5,0,0,1,4.14,0L49,25.56A2.84,2.84,0,0,1,47.79,31H47v2.33h.82a5.18,5.18,0,0,0,2.13-9.89ZM34.51,29.93c1.33,0,2.15.84,2.15,2.41a2.1,2.1,0,0,1-2.15,2.34,2,2,0,0,1-2.15-2.34A2.12,2.12,0,0,1,34.51,29.93Zm-5.4,13.56c.3-1.64.63-2.54.77-3.68.3-2.52,1.19-3.74,2.61-4.18a6.93,6.93,0,0,1,4.1,0c1.41.44,2.3,1.66,2.61,4.18.13,1.14.46,2,.76,3.68.25,1.34-.48,2.07-1.08,2.15a59.46,59.46,0,0,1-1.61-7.23,3.48,3.48,0,0,0-.21-.45,4.2,4.2,0,0,1,0,2.37,4.06,4.06,0,0,0,0,2,18.61,18.61,0,0,1,1.11,6.64,12.88,12.88,0,0,0-1.31-.13v7.75a2,2,0,0,1-1.95-1.85V48.88l-.31,0-.34,0v5.77a2,2,0,0,1-2,1.8V49.11A5.51,5.51,0,0,1,30.94,49a18.75,18.75,0,0,1,1.11-6.66,4.06,4.06,0,0,0,0-2A4.11,4.11,0,0,1,32,38a4.75,4.75,0,0,0-.22.45,59.46,59.46,0,0,1-1.61,7.23C29.6,45.56,28.87,44.83,29.11,43.49Z"/></g></svg>
